src/assets/Vector (47).svg

<svg width="79" height="78" viewBox="0 0 79 78" fill="none" xmlns="http://www.w3.org/2000/svg">
<path fill-rule="evenodd" clip-rule="evenodd" d="M57.6789 0.611381C56.8328 0.928919 56.209 1.43738 55.8016 2.14166C54.5843 4.24639 55.7096 6.76159 58.1184 7.31966C58.722 7.45959 59.0138 7.44551 59.7069 7.24326C61.9888 6.57741 62.9298 3.89195 61.5798 1.89807C60.7989 0.744582 58.9494 0.134613 57.6789 0.611381ZM31.3614 1.1177C31.2654 1.1572 30.8951 2.0302 30.5384 3.05769C30.1816 4.08517 29.7797 5.03381 29.6451 5.16563C29.5105 5.29761 28.6623 5.73778 27.7605 6.14397C26.3835 6.76419 26.1207 6.93751 26.1207 7.22519C26.1207 7.67685 26.2482 7.76749 27.9512 8.52581C28.7482 8.88071 29.5117 9.28383 29.6479 9.42163C29.784 9.55942 30.1865 10.5117 30.5422 11.538C31.4717 14.2184 31.7108 14.2092 32.6784 11.455C33.0254 10.467 33.3566 9.58315 33.4141 9.49083C33.4718 9.39836 34.2691 8.9839 35.186 8.56975C37.7121 7.42851 37.7217 7.17237 35.28 6.05578C34.4178 5.66153 33.6245 5.24601 33.5168 5.1324C33.4091 5.0188 33.0669 4.20245 32.7565 3.31827C32.01 1.19149 31.8387 0.921264 31.3614 1.1177ZM57.8954 2.54601C57.2057 2.96812 56.9557 3.83806 57.3093 4.58582C57.5477 5.08984 58.2898 5.61484 58.7642 5.61484C59.2386 5.61484 59.9807 5.08984 60.2191 4.58582C60.5727 3.83806 60.3227 2.96812 59.6331 2.54601C59.0156 2.16815 58.5128 2.16815 57.8954 2.54601ZM72.2515 2.7011C71.7699 2.89662 71.1439 3.72323 71.0347 4.30794C70.9058 4.99737 71.175 5.77009 71.7302 6.30396C72.3741 6.92312 73.5688 7.0162 74.3233 6.50575C75.6981 5.57564 75.6745 3.70746 74.2769 2.85222C73.7712 2.54279 72.8168 2.4716 72.2515 2.7011ZM44.9144 8.80446C43.3618 9.36069 42.3111 10.5361 41.8981 12.1784C41.6154 13.3022 41.6453 13.5504 42.3734 16.1337C42.663 17.1615 42.9001 18.0351 42.9001 18.0751C42.9001 18.1151 42.4367 18.0108 41.8704 17.8433C39.7135 17.2055 38.7126 17.0606 37.6304 17.2298C35.8166 17.5132 34.8259 18.1126 32.7133 20.2046C31.6754 21.2326 30.5796 22.4727 30.2782 22.9604C29.976 23.4495 29.6479 23.8156 29.5466 23.7766C28.0204 23.1886 27.0006 23.0025 25.2817 22.9974C23.6406 22.9928 23.3808 23.0299 22.7702 23.3566C21.7047 23.9266 20.5449 24.8641 20.134 25.4872C19.6626 26.2022 0.973473 69.4132 0.685173 70.4546C0.178894 72.2838 0.821849 74.5223 2.24032 75.8687C3.2483 76.8256 4.02396 77.22 5.34572 77.4475C6.23243 77.6 6.55399 77.59 7.37465 77.3847C8.13781 77.1937 27.5767 68.8704 49.9856 59.1397C52.3752 58.1021 52.943 57.7231 53.6416 56.6983C54.2332 55.8307 54.7953 53.8339 54.7971 52.5931C54.8006 50.2336 53.4043 46.4849 51.242 43.0489C48.7652 39.1132 44.5138 34.2145 40.7906 31.0063C39.9924 30.3184 39.9684 30.2732 39.4742 28.5153C39.1606 27.3993 39.0399 26.7512 39.154 26.7952C41.6062 27.7397 43.6631 28.0136 45.1249 27.5901C46.6433 27.1502 47.3674 26.6379 49.437 24.5401C51.0486 22.9065 51.518 22.3285 51.9028 21.5028C52.425 20.383 52.68 19.0126 52.5569 17.9887C52.4296 16.9297 50.8335 11.5697 50.4401 10.8796C49.3717 9.0058 46.921 8.08549 44.9144 8.80446ZM56.5455 11.5025C56.0746 11.975 56.0685 12.5209 56.5283 13.0574C57.2312 13.8776 58.5099 13.412 58.5099 12.3357C58.5099 11.99 58.3865 11.737 58.0947 11.4852C57.5602 11.0237 57.0163 11.0298 56.5455 11.5025ZM45.6826 11.7888C45.2767 12.0151 44.9655 12.4407 44.8412 12.94C44.7589 13.2695 46.214 18.8418 47.04 21.3615L47.3587 22.3337L48.1009 21.5999C49.7235 19.9959 49.813 19.0187 48.6865 15.2114C47.7905 12.1835 47.7637 12.123 47.1742 11.8171C46.6385 11.5391 46.1474 11.5297 45.6826 11.7888ZM66.8324 12.5733C66.4458 12.6803 65.7835 12.957 65.3605 13.188C64.3054 13.7644 60.5981 17.5447 60.0999 18.5522C59.2122 20.3469 59.1741 22.1651 59.9745 24.5113C60.2309 25.2626 60.4155 25.9024 60.3848 25.9333C60.3541 25.9641 59.4449 25.7328 58.3644 25.4192C55.1762 24.4942 53.6363 24.7085 52.0901 26.293C50.0052 28.4294 50.6258 32.2691 53.2763 33.6334C53.5719 33.7855 55.1292 34.2997 56.737 34.776C61.981 36.3298 63.2669 36.0307 66.8625 32.4219C68.9719 30.3049 69.6003 29.3088 69.9143 27.586C70.1149 26.4847 70.0184 25.6049 69.4902 23.7159C69.2719 22.9349 69.1307 22.2584 69.1766 22.2124C69.2223 22.1665 70.1379 22.3747 71.2112 22.6754C72.3165 22.9849 73.511 23.2219 73.966 23.2219C75.6844 23.2219 77.355 22.1495 78.1439 20.5401C78.4484 19.9191 78.5172 19.5489 78.5135 18.5522C78.5082 17.111 78.1328 16.1751 77.1744 15.2131C76.4001 14.436 75.8877 14.2213 72.3747 13.2035C69.2288 12.2917 68.2513 12.1806 66.8324 12.5733ZM67.6027 15.5587C66.895 15.7742 66.4772 16.0515 65.661 16.8474L64.8547 17.6335L65.7373 17.9052C68.4874 18.7515 73.6751 20.1598 74.0424 20.1598C74.3004 20.1598 74.6692 19.982 74.9691 19.713C75.3938 19.3322 75.4673 19.1632 75.4673 18.5682C75.4673 17.4282 75.136 17.2146 71.8703 16.2492C69.1206 15.4363 68.3918 15.3184 67.6027 15.5587ZM37.7441 20.3112C37.4672 20.3769 37.219 20.4557 37.1927 20.4865C37.1663 20.5173 37.3248 21.1282 37.5449 21.8439L37.945 23.1453L40.3844 23.9554C42.4315 24.6352 42.9643 24.7567 43.6977 24.7114C44.1784 24.6816 44.6177 24.611 44.674 24.5545C44.7733 24.4548 44.2113 22.3268 43.9531 21.8249C43.8705 21.6645 43.0253 21.357 41.5702 20.9584C38.9379 20.2368 38.4246 20.15 37.7441 20.3112ZM62.5718 20.5583C62.2902 21.3016 62.431 22.1829 63.2185 24.6075L64.0119 27.0498L65.2975 27.4433C66.1792 27.7132 66.6324 27.7873 66.7401 27.6792C67.0904 27.3275 66.9056 25.7527 66.2394 23.4168L65.5748 21.0854L64.572 20.7638C64.0204 20.5869 63.3778 20.3813 63.1438 20.3069C62.7701 20.1879 62.7004 20.2187 62.5718 20.5583ZM33.6138 23.6279C32.8261 24.5151 32.3748 25.5097 32.3748 26.3591C32.3748 26.8108 33.4782 30.809 33.988 32.2043C34.2688 32.9732 34.759 33.328 35.5347 33.3234C36.3926 33.3183 37.1036 32.6177 37.1036 31.7776C37.1036 31.0567 34.7204 22.7625 34.5133 22.7625C34.4413 22.7625 34.0365 23.152 33.6138 23.6279ZM23.8785 26.2775C22.9307 26.8576 22.8707 28.2699 23.6886 30.7551C25.8678 37.377 33.7617 46.4481 41.8323 51.6045C43.2351 52.5007 45.6868 53.7102 47.0187 54.1629C48.2298 54.5746 50.278 54.7138 50.8322 54.4221C51.4783 54.0819 51.7793 53.2965 51.6865 52.1934C51.6037 51.2088 51.0494 49.0965 50.8738 49.0965C50.82 49.0965 50.4767 49.242 50.1109 49.4196C49.1164 49.9029 47.5762 49.7896 46.682 49.1676C45.3761 48.2589 44.8261 46.3114 45.4728 44.8862C45.7294 44.3206 46.5987 43.4133 47.2331 43.0489C47.4715 42.9119 47.415 42.7828 46.697 41.8241C45.2783 39.9297 43.635 38.0447 41.6566 36.0421L39.7259 34.0875L38.8341 34.9817C37.7841 36.0346 36.926 36.3896 35.4366 36.3873C33.8357 36.385 32.3183 35.5287 31.544 34.191C31.1992 33.5953 29.5522 28.3443 29.4481 27.5088C29.3904 27.0463 28.6962 26.671 27.138 26.2605C25.7153 25.8856 24.5087 25.8918 23.8785 26.2775ZM54.8558 28.035C54.2284 28.3091 53.8829 28.829 53.8829 29.4991C53.8829 30.0898 54.1835 30.6289 54.6537 30.8814C54.8173 30.9693 56.0986 31.3832 57.5012 31.8012C61.2247 32.9109 62.1488 32.8226 63.7099 31.2072L64.4608 30.4302L64.0149 30.2582C63.5489 30.0783 55.5412 27.8109 55.4083 27.8211C55.3664 27.8243 55.1178 27.9206 54.8558 28.035ZM12.1786 51.3202C7.50263 62.1436 3.63926 71.231 3.5935 71.5141C3.33708 73.1007 4.97505 74.7362 6.52775 74.4439C6.83313 74.3863 15.7768 70.5826 26.4026 65.9911C37.0284 61.3995 45.9202 57.5611 46.1623 57.4612C46.5963 57.282 46.5836 57.2723 45.2471 56.764C40.8779 55.1022 35.9528 51.6145 31.0711 46.7251C26.4101 42.0566 23.0088 37.3063 21.232 32.9829L20.6805 31.6412L12.1786 51.3202ZM74.2231 33.1256C74.126 33.1608 73.8191 33.8522 73.541 34.662L73.0354 36.1342L71.7345 36.7434C71.019 37.0786 70.3865 37.4255 70.329 37.5145C70.1286 37.8247 70.4709 38.1068 71.7245 38.6652L72.9866 39.2273L73.509 40.6778C73.7964 41.4756 74.0942 42.1912 74.1709 42.2682C74.4265 42.5248 74.7565 42.0514 75.1558 40.8557C75.3718 40.2094 75.6132 39.5773 75.6925 39.4509C75.7718 39.3246 76.4056 38.9457 77.1012 38.6089C78.8041 37.7841 78.8116 37.6146 77.1779 36.8462C76.4695 36.513 75.8224 36.1532 75.7401 36.0467C75.6578 35.9401 75.3956 35.2825 75.1577 34.5853C74.7167 33.2935 74.5365 33.012 74.2231 33.1256ZM19.742 41.977C19.1593 42.4691 18.4411 44.2205 18.5737 44.8261C18.7038 45.4213 19.4648 46.0344 20.0731 46.0344C20.7962 46.0344 21.2181 45.6514 21.712 44.5464C22.375 43.0634 22.2846 42.2874 21.395 41.8256C20.7559 41.494 20.2603 41.5393 19.742 41.977ZM63.1894 42.5614C61.8747 42.9815 60.7378 44.9096 60.9882 46.2941C61.5148 49.2055 64.9497 50.278 66.9567 48.1577C68.252 46.7894 68.2083 44.813 66.8517 43.4098C65.8898 42.4147 64.59 42.1136 63.1894 42.5614ZM63.6455 44.3921C63.4357 44.4967 63.1386 44.8398 62.985 45.1544C62.208 46.7474 64.1792 48.1606 65.5117 46.9656C65.9394 46.5821 66.0099 46.4178 66.0099 45.8048C66.0099 45.1917 65.9394 45.0275 65.5117 44.6439C64.9657 44.1543 64.3014 44.0646 63.6455 44.3921ZM47.5373 45.1771C46.9535 45.763 46.8641 46.3622 47.249 47.1092C47.5429 47.6795 47.908 47.8717 48.6983 47.8717C50.2757 47.8717 50.8294 45.7229 49.4608 44.9114C48.7593 44.4956 48.1298 44.5824 47.5373 45.1771ZM16.9764 48.4458C16.6748 48.7254 16.1931 49.6388 15.5435 51.1634C14.3035 54.073 14.3176 54.0207 14.5918 54.6792C15.0265 55.7237 16.5809 55.9311 17.1564 55.0215C17.5384 54.418 19.409 49.8954 19.409 49.5754C19.409 48.7447 18.6701 48.0248 17.8172 48.0248C17.6047 48.0248 17.2263 48.2143 16.9764 48.4458Z" fill="white"/>
</svg>

<svg xmlns="http://www.w3.org/2000/svg" width="79" height="78" fill="none" viewBox="0 0 79 78"><path fill="#fff" fill-rule="evenodd" d="M57.679.611q-1.268.475-1.877 1.53c-1.218 2.105-.092 4.62 2.316 5.179.604.14.896.126 1.589-.077 2.282-.666 3.223-3.351 1.873-5.345C60.799.745 58.95.135 57.679.611m-26.318.507c-.096.04-.466.912-.823 1.94-.356 1.027-.758 1.976-.893 2.108-.134.132-.983.572-1.884.978-1.377.62-1.64.794-1.64 1.081 0 .452.127.542 1.83 1.3.797.356 1.56.759 1.697.897.136.137.538 1.09.894 2.116.93 2.68 1.169 2.671 2.136-.083.347-.988.679-1.872.736-1.964.058-.093.855-.507 1.772-.921 2.526-1.141 2.536-1.398.094-2.514-.862-.394-1.656-.81-1.763-.924-.108-.113-.45-.93-.76-1.814-.747-2.127-.918-2.397-1.396-2.2m26.534 1.428c-.69.422-.94 1.292-.586 2.04.239.504.98 1.029 1.455 1.029s1.217-.525 1.455-1.03c.354-.747.104-1.617-.586-2.039-.617-.378-1.12-.378-1.738 0m14.356.155c-.481.196-1.107 1.022-1.216 1.607-.13.69.14 1.462.695 1.996.644.62 1.839.712 2.593.202 1.375-.93 1.352-2.799-.046-3.654-.506-.31-1.46-.38-2.026-.15M44.914 8.804c-1.552.557-2.603 1.732-3.016 3.374-.283 1.124-.253 1.372.475 3.956.29 1.027.527 1.901.527 1.941s-.463-.064-1.03-.232c-2.156-.637-3.157-.782-4.24-.613-1.813.283-2.804.883-4.917 2.975-1.038 1.028-2.133 2.268-2.435 2.755-.302.49-.63.856-.731.817-1.527-.588-2.546-.774-4.265-.78-1.641-.004-1.901.033-2.512.36-1.065.57-2.225 1.507-2.636 2.13-.471.715-19.16 43.926-19.449 44.968-.506 1.829.137 4.067 1.555 5.414 1.008.957 1.784 1.351 3.106 1.579.886.152 1.208.142 2.029-.063.763-.191 20.202-8.515 42.61-18.245 2.39-1.038 2.958-1.417 3.657-2.442.591-.867 1.153-2.864 1.155-4.105.004-2.36-1.393-6.108-3.555-9.544-2.477-3.936-6.728-8.834-10.451-12.043-.799-.688-.823-.733-1.317-2.49-.313-1.117-.434-1.765-.32-1.72 2.452.944 4.51 1.218 5.97.794 1.52-.44 2.243-.952 4.313-3.05 1.612-1.633 2.081-2.212 2.466-3.037.522-1.12.777-2.49.654-3.514-.127-1.06-1.724-6.42-2.117-7.11-1.068-1.873-3.519-2.794-5.526-2.075m11.631 2.698c-.47.473-.477 1.019-.017 1.555.703.82 1.982.355 1.982-.721 0-.346-.123-.599-.415-.85-.535-.462-1.079-.456-1.55.016m-10.862.287c-.406.226-.718.652-.842 1.151-.082.33 1.373 5.902 2.199 8.422l.319.972.742-.734c1.623-1.604 1.712-2.581.586-6.389-.896-3.027-.923-3.088-1.513-3.394-.535-.278-1.027-.287-1.491-.028m21.15.784a8.5 8.5 0 0 0-1.472.615c-1.056.576-4.763 4.357-5.261 5.364-.888 1.795-.926 3.613-.126 5.96.257.75.442 1.39.41 1.421-.03.031-.94-.2-2.02-.514-3.188-.925-4.728-.71-6.274.874-2.085 2.136-1.464 5.976 1.186 7.34.296.152 1.853.667 3.461 1.143 5.244 1.554 6.53 1.255 10.125-2.354 2.11-2.117 2.738-3.113 3.052-4.836.2-1.101.104-1.981-.424-3.87-.218-.781-.36-1.458-.313-1.504.045-.046.96.163 2.034.463 1.106.31 2.3.547 2.755.547 1.718 0 3.389-1.073 4.178-2.682.304-.62.373-.991.37-1.988-.006-1.441-.381-2.377-1.34-3.339-.774-.777-1.286-.992-4.8-2.01-3.145-.911-4.123-1.022-5.542-.63m.77 2.986c-.708.215-1.126.493-1.942 1.288l-.806.787.882.271c2.75.846 7.938 2.255 8.305 2.255.258 0 .627-.178.927-.447.425-.38.498-.55.498-1.145 0-1.14-.331-1.353-3.597-2.319-2.75-.813-3.478-.93-4.267-.69M37.744 20.31c-.277.066-.525.145-.551.175-.027.031.132.642.352 1.358l.4 1.301 2.44.81c2.047.68 2.58.802 3.313.756.48-.03.92-.1.976-.156.1-.1-.463-2.228-.72-2.73-.084-.16-.929-.468-2.384-.867-2.632-.721-3.145-.808-3.826-.647m24.828.247c-.282.744-.141 1.625.646 4.05l.794 2.442 1.285.393c.882.27 1.335.344 1.443.236.35-.351.166-1.926-.5-4.262l-.665-2.332-1.003-.321-1.428-.457c-.374-.12-.444-.088-.572.251m-28.958 3.07c-.788.887-1.24 1.882-1.24 2.731 0 .452 1.104 4.45 1.614 5.845.28.77.771 1.124 1.547 1.12.858-.006 1.569-.706 1.569-1.546 0-.721-2.384-9.015-2.59-9.015-.073 0-.478.389-.9.865m-9.735 2.65c-.948.58-1.008 1.992-.19 4.477 2.179 6.622 10.073 15.693 18.143 20.85 1.403.896 3.855 2.105 5.187 2.558 1.21.412 3.259.55 3.813.26.646-.341.947-1.126.855-2.23-.083-.984-.638-3.096-.813-3.096-.054 0-.397.145-.763.323-.995.483-2.535.37-3.429-.252-1.306-.91-1.856-2.857-1.21-4.282.257-.565 1.127-1.473 1.761-1.837.239-.137.182-.266-.536-1.225-1.419-1.894-3.062-3.78-5.04-5.782l-1.931-1.955-.892.895c-1.05 1.053-1.908 1.408-3.397 1.405-1.601-.002-3.119-.858-3.893-2.196-.345-.596-1.992-5.847-2.096-6.682-.058-.463-.752-.838-2.31-1.248-1.423-.375-2.63-.37-3.26.017m30.977 1.757c-.628.274-.973.794-.973 1.464 0 .59.3 1.13.77 1.382.164.088 1.446.502 2.848.92 3.724 1.11 4.648 1.022 6.209-.594l.75-.777-.445-.172c-.466-.18-8.474-2.447-8.607-2.437-.042.003-.29.1-.552.214M12.179 51.32c-4.676 10.824-8.54 19.911-8.585 20.194-.257 1.587 1.381 3.222 2.934 2.93.305-.058 9.249-3.861 19.875-8.453s19.517-8.43 19.76-8.53c.433-.179.42-.189-.916-.697-4.37-1.662-9.294-5.15-14.176-10.039-4.66-4.668-8.062-9.419-9.839-13.742l-.552-1.342zm62.044-18.194c-.097.035-.404.726-.682 1.536l-.506 1.472-1.3.61c-.716.335-1.349.681-1.406.77-.2.31.142.593 1.396 1.151l1.262.562.522 1.45c.287.799.585 1.514.662 1.591.255.257.585-.217.985-1.412.216-.647.457-1.279.536-1.405s.714-.505 1.41-.842c1.702-.825 1.71-.994.076-1.763-.709-.333-1.356-.693-1.438-.8-.082-.106-.344-.764-.582-1.46-.441-1.292-.621-1.574-.935-1.46m-54.481 8.851c-.583.492-1.3 2.244-1.168 2.85.13.594.89 1.207 1.5 1.207.722 0 1.144-.383 1.638-1.488.663-1.483.573-2.259-.317-2.72-.64-.332-1.135-.287-1.653.151m43.447.584c-1.314.42-2.451 2.349-2.2 3.733.526 2.912 3.96 3.984 5.968 1.864 1.295-1.369 1.251-3.345-.105-4.748-.962-.995-2.262-1.296-3.663-.849m.456 1.831c-.21.105-.506.448-.66.762-.777 1.593 1.194 3.007 2.527 1.812.427-.384.498-.548.498-1.161s-.07-.777-.498-1.161c-.546-.49-1.21-.58-1.867-.252m-16.108.785c-.584.586-.673 1.185-.288 1.932.294.57.659.763 1.45.763 1.577 0 2.13-2.15.762-2.96-.702-.416-1.331-.33-1.924.265m-30.56 3.269c-.302.28-.784 1.193-1.434 2.717-1.24 2.91-1.225 2.858-.951 3.516.434 1.045 1.989 1.252 2.564.343.382-.604 2.253-5.127 2.253-5.447 0-.83-.739-1.55-1.592-1.55-.212 0-.59.19-.84.42" clip-rule="evenodd"/></svg>
